!!!!SEGMENT: pl-wtm--r-2541--002_hertz-michal--komandor-no-2.krn
!!!cenid: 18xx:3101
!!!COM: Hertz, Michał
!!!COM-rismid: pe41023359
!!!CDT: 1844/09/28-~1918
!!!CNT: Polish
!!!GTL: Komandor
!!!OTL: No. 2
!!!PDT:
!!!AGN:
!!!SMS-siglum: PL-Wtm
!!!SMS-shelfmark: R 2541
!!!SMS-shelfwork: 002 G
!!!SMS-variant:
!!!SMS-altvar:
!!!NIFC-rismid: 1001082458
!!!URL-scan: http://repozytorium.nifc.pl/skany/pl-wtm-nut--r2541
!!!ONB-nifc:
!!!key: A-
!!!OMD: andante.
**kern	**text	**kern	**text	**dynam
*group1	*	*group1	*	*
*part1	*part1	*part1	*part1	*part1
*staff2	*staff2	*staff1	*staff1	*
*I"[Piano]	*	*I"[Piano]	*	*
*Ipiano	*	*Ipiano	*	*
*ICklav	*	*ICklav	*	*
*clefF4	*	*clefG2	*	*
*k[b-e-a-d-]	*	*k[b-e-a-d-]	*	*
*A-:	*	*A-:	*	*
*M4/4	*	*M4/4	*	*
*met(c)	*	*met(c)	*	*
=1	=1	=1	=1	=1
*^	*	*^	*	*
*	*2\right	*	*	*2\right	*	*
!	!	!	!	!	!	!LO:DY:rj
2C/	2AA-\	.	2e-/	2e-\	Czy-	p
!	!LO:TX:t=P:4\right:problem	!	!	!LO:TX:t=P:4\right:problem	!	!
4..C/	4..C\	.	4..a-/	4..e-\	-sta	.
!	!LO:TX:t=P:problem=all\middle&colon; global	!	!	!	!	!
16E-/	16E-\	.	16cc/	16a-\	mi-	.
=2	=2	=2	=2	=2	=2	=2
*	*2\left	*	*	*2\left	*	*
2F/	2Dn\	.	2cc/	2a-\	-ło-	.
2F/	2D\	.	2bn/	2a-\	-ści	.
=3	=3	=3	=3	=3	=3	=3
2F/	2D-X\	.	2b-X/	2b-X\	Naj-	.
!	!LO:TX:t=P:problem=all\middle&colon; global	!	!	!LO:TX:t=P:problem=4\middle	!	!
4..F/	4..F\	.	4..dd-/	4..b-\	-droż-	.
!	!	!	!	!LO:TX:t=P:problem=16\left	!	!
16B-/	16B-\	.	16ff/	16dd-\	-szy	.
=4	=4	=4	=4	=4	=4	=4
*	*2\right	*	*	*2\right	*	*
2B-/	2A-\	.	2ff/	2dd-\	da-	.
2B-/	2A-\	.	2een/	2dd-\	-rze	.
!!LO:LB:g=original
=5	=5	=5	=5	=5	=5	=5
!	!	!	!	!	!	!LO:HP:b=2
2B-/	2G\	.	2ee-X/	2dd-\	ża-	<
!	!LO:TX:t=P:problem=all\middle&colon; global	!	!	!LO:TX:t=P:problem=all\middle&colon; global	!	!
4..B-/	4..A-\	.	4..ff/	4..dd-\	-dna	.
16B-/	16G\	.	16ee-/	16dd-\	cię	.
=6	=6	=6	=6	=6	=6	=6
*	*2\left	*	*	*	*	*
2e-/	2A-\	.	2aa-/	2cc\	si-	.
4..A-/	4..C\	.	4..ee-/	4..a-\	-ła	.
16F/	16D-\	nie	16dd-/	16a-\	nie	.
=7	=7	=7	=7	=7	=7	=7
(>4..E-/	4..E-\	znę-	[>1cc	[<1g	znę-	.
16F/	16F\	.	.	.	.	[
!	!LO:TX:t=P:4\right:problem	!	!	!	!	!
4..E-/)	4..E-\	-ka,	.	.	.	.
!	!	!	!LO:TX:b:t=nie znę-	!	!	!
16F/	16Dn\	nie	.	.	.	.
=8	=8	=8	=8	=8	=8	=8
2F/	(<4..Dn\	znę-	(>4..cc/]	2g\]	.	.
!	!	!	!	!	!	!LO:HP:b=2
.	16E-\)	.	16b-/)	.	.	>
!	!	!	!	!LO:TX:t=P:4\left:problem	!	!
4G/	4D\	-ka	4b-/	4g\	-ka	.
4r	4ryy	.	4r	4ryy	.	]]
*v	*v	*	*	*	*	*
*	*	*v	*v	*	*
!!LO:LB:g=original
=9	=9	=9	=9	=9
*^	*	*^	*	*
*	*2\right	*	*	*	*	*
!	!	!	!	!	!	!LO:DY:rj
2C/	2AA-\	.	2e-/	2e-\	Mi-	p
!	!LO:TX:t=P:4\right:problem	!	!	!LO:TX:t=P:4\right:problem	!	!
4..C/	4..C\	.	4..a-/	4..e-\	-łe	.
!	!LO:TX:t=P:problem=16\middle	!	!	!LO:TX:t=P:problem=16\left	!	!
16E-/	16E-\	.	16cc/	16a-\	są	.
=10	=10	=10	=10	=10	=10	=10
*	*2\left	*	*	*	*	*
2F/	2Dn\	.	2cc/	2a-\	nie-	.
2F/	2D\	.	2bn/	2a-\	-bu	.
=11	=11	=11	=11	=11	=11	=11
!	!LO:TX:t=P:problem=2\middle	!	!	!	!	!
2F/	2D-X\	.	2b-X/	2b-X\	two-	.
!	!LO:TX:t=P:4\right:problem	!	!	!LO:TX:t=P:4\right:problem	!	!
4..F/	4..F\	.	4..dd-/	4..b-\	-je	.
!	!LO:TX:t=P:problem=16\middle	!	!	!LO:TX:t=P:problem=16\left	!	!
16B-/	16B-\	.	16ff/	16dd-\	oł-	.
=12	=12	=12	=12	=12	=12	=12
*	*2\right	*	*	*	*	*
2B-/	2A-\	.	2ff/	2dd-\	-ta-	.
2B-/	2A-\	.	2een/	2dd-\	-rze	.
!!LO:LB:g=original
=13	=13	=13	=13	=13	=13	=13
!	!	!	!	!	!	!LO:DY:rj
2B-/	2G\	.	2een/	2cc\	Bo-	f
!	!LO:TX:t=P:problem=all\middle&colon; global	!	!	!LO:TX:t=P:problem=all\middle&colon; global	!	!
4..A-/	4..F\	.	4..ff/	4..cc\	-ża	.
!	!LO:TX:t=P:problem=16\left	!	!	!LO:TX:b=2:t=cre_scen_do:problem=dynamics with extention lines	!	!LO:HP:i:b=2:t=cre-scen-do:ext=ud
16G/	16En\	.	16gg/	16cc\	za-	<
=14	=14	=14	=14	=14	=14	=14
!	!	!	!	!	!	!LO:DY:a
(2.F/	(<2F\	.	(>2aa-/	2.cc\	-tli-	.
.	4AA-\)	.	4ff/)	.	.	.
8F/)	8BB-\	.	8dd-/	8b-\	-ła,	.
*v	*v	*	*	*	*	*
*	*	*v	*v	*	*
16r	.	16r	.	.
*^	*	*^	*	*
!	!LO:TX:t=P:problem=16\left	!	!LO:TX:a:t=je	!	!	!
16D-/	16D-\	.	16b-/	16f\	za-	.
=15	=15	=15	=15	=15	=15	=15
!	!	!	!LO:TX:a:t=rę-	!	!	!
2E-/	2C\	.	[>1ee-	2a-\	-tli-	.
4..D-/	4..BB-\	.	.	4..g\	-ła	.
!	!LO:TX:t=P:problem=16\left	!	!	!LO:TX:t=P:problem=16\left	!	!
16D-/	16EE-\	.	.	16g\	je	.
=16	=16	=16	=16	=16	=16	=16
*	*2\left	*	*	*2\left	*	*
2D-/	2EE-\	.	2ee-/]	2g\	rę-	[ >
!	!LO:TX:t=P:4\left:problem	!	!LO:TX:a:t=-ka	!	!	!
4C/	4AA-\	.	4a-/	4a-/yy	-ka.	.
4r	4ryy	.	4r	4ryy	.	]
*v	*v	*	*	*	*	*
*	*	*v	*v	*	*
!!LO:LB:g=original
=17:|!	=17:|!	=17:|!	=17:|!	=17:|!
*^	*	*^	*	*
!	!	!	!	!	!	!LO:DY:rj
2Dn/	2AA-\	.	2b-/	2f\	Pło-	p
!	!LO:TX:t=P:4\right:problem	!	!	!LO:TX:t=P:problem=all\left&colon; global	!	!
4..C/	4..AA-\	.	4..cc/	4..f\	-mień	.
!	!LO:TX:t=P:problem=all\middle&colon; global	!	!	!	!	!LO:HP:b=2
16BBn/	16GG\	.	16ddn/	16f\	twój	<
=18	=18	=18	=18	=18	=18	=18
*	*	*	*	*2\right	*	*
!	!	!	!LO:N:vis=2.	!	!	!
2.C/	2.C\	.	(>2ff/	2.g\	zie-	.
.	.	.	4een/)	.	.	.
8.C/	8.C\	.	8.ee-X/	8.g\	mi	[
16E-/	16EE-\	.	16cc/	16g\	o-	.
=19	=19	=19	=19	=19	=19	=19
!	!	!	!LO:N:vis=4..	!	!	!
4..C/	4..FF\	.	(>4.b-/	4..f\	-gar-	.
.	.	.	16an/LL)	.	.	.
!	!	!	!	!LO:TX:t=P:problem=all\middle&colon; global	!	!LO:HP:b=2
16BB-/	16BB-\	.	16a-X/JJ	16dn\	-nia	>
4..BB-/	4..BB-\	.	4..cc/	4..d\	.	.
!	!	!	!	!LO:TX:t=P:problem=16\left	!	!
16BB-/	16BB-\	.	16a-/	16d\	-mi	.
=20	=20	=20	=20	=20	=20	=20
*	*2\right	*	*	*	*	*
2BB-/	2BB-\	.	2a-/	2dn\	kra-	]
*	*	*	*	*2\left	*	*
2BB-/	2EE-\	.	2g/	2e-\	-ńce	.
*v	*v	*	*	*	*	*
*	*	*v	*v	*	*
!!LO:PB:g=original
==21	==21	==21	==21	==21
*k[f#c#g#]	*	*k[f#c#g#]	*	*
*^	*	*^	*	*
*	*2\left	*	*	*2\right	*	*
!	!	!	!	!	!	!LO:DY:rj
2En/	2BB\	.	2cc#/	2g#\	Wsa-	p
!	!LO:TX:t=P:problem=all\left&colon; global	!	!	!LO:TX:t=P:problem=4\middle	!	!
4..Dn/	4..BB\	.	4..ddn/	4..g#\	-mym	.
!	!	!	!	!LO:TX:t=P:problem=all\left&colon; global	!	!LO:HP:b=2
16C#X/	16AAn\	.	16een/	16g#\	się	<
=22	=22	=22	=22	=22	=22	=22
*	*2\right	*	*	*2\right	*	*
2.Dn/	2.Dn\	.	(>2gg#/	2.an\	pa-	.
.	.	.	4ff#X/	.	.	.
8.D/	8.D\	.	8.ffn/)	8.a\	-li	.
16F#/	16FF#\	.	16ddn/	16a\	się	.
=23	=23	=23	=23	=23	=23	=23
!	!LO:TX:t=P:problem=4\middle	!	!LO:TX:t=P:problem=all\middle&colon; global	!	!	!
4..Dn/	4..GG#\ 4..Dn	.	(>4.cc#/	4..g#\	pa-	.
.	.	.	16bn/)	.	.	.
!	!LO:TX:t=P:problem=16\right	!	!	!	!	!
16C#/	16C#\	.	16bn/	16en\	-li	.
!	!LO:TX:t=P:problem=4\middle	!	!	!	!	!
4..C#/	4..C#\	.	4..ddn/	4..e\	się	.
!	!LO:TX:t=P:problem=16\left	!	!	!	!	!
16C#/	16C#\	.	16b/	16e\	bie-	.
=24	=24	=24	=24	=24	=24	=24
*	*2\left	*	*	*	*	*
2C#/	2C#\	.	2b/	2en\	-gu-	[
*	*	*	*	*2\left	*	*
2C#/	2FF#\	.	2an/	2f#\	-nie	.
!!LO:LB:g=original
=25	=25	=25	=25	=25	=25	=25
!	!	!	!	!	!	!LO:DY:rj
2E/	2C#\	.	2a-X/	2g-X\	I	p
!	!LO:TX:t=P:problem=all\left&colon; global	!	!	!LO:TX:t=P:problem=all\left&colon; global	!	!
4..E/	4..D\	.	4..b/	4..g-\	pa-	.
16E/	16C#\	.	16a-/	16g-\	-lić	.
=26	=26	=26	=26	=26	=26	=26
*	*	*	*	*2\right	*	*
!	!LO:TX:t=P:all:problem=4\middle&colon; global	!	!	!LO:TX:b=2:t=cres_e_acell.:problem=dynamics with extention lines	!	!LO:HP:i:b=2:t=cre-scen-do:ext=ud
(>4..G-X/	(<4..C#\	.	(>4..ee/	2a\	bę-	<
16F#/)	16D\)	.	16dd/)	.	.	.
!	!LO:TX:t=P:problem=all\left&colon; global	!	!	!LO:TX:t=P:problem=4\middle	!	!
4F#/	4D\	.	4cc#/	4a\	-dzie,	.
8.r	8.r	.	8.r	8.ryy	.	.
!	!	!	!	!LO:TX:t=P:problem=16\left	!	!
16F#/	16D\	.	16cc-X/	16a\	do-	.
=27	=27	=27	=27	=27	=27	=27
*	*	*	*	*2\left	*	*
(>2F#/	(<2Dn\	.	(>2b/	(<2a\	-pó-	.
!	!LO:TX:t=P:problem=all\left&colon; global	!	!	!LO:TX:t=P:problem=all\middle&colon; global	!	!
4..F#/)	4..E\)	.	4..cc#/)	4..a\)	.	.
16F#/	16D\	.	16b/	16a\	-ki	[
=28	=28	=28	=28	=28	=28	=28
*	*	*	*	*2\right	*	*
!	!LO:TX:t=P:problem=all\middle&colon; global	!	!	!	!	!
(>4..A/	(<4..Dn\	.	(>4..ff#/	2b\	sło-	.
16G#/)	16E\)	.	16ff#/)	.	.	.
!	!	!	!	!LO:TX:t=P:problem=all\left&colon; global	!	!
4G#/	4E\	.	4ddn/	4b\	-ńce	.
*v	*v	*	*	*	*	*
*	*	*v	*v	*	*
8.r	.	8.r	.	.
*^	*	*^	*	*
16G#/	16E\	.	16dd-X/	16b\	Na	.
!!LO:LB:g=original
=29	=29	=29	=29	=29	=29	=29
*	*2\right	*	*	*	*	*
!	!	!	!LO:TX:b=2:t=ral-len-tan-do.:dur=12q:ext=ud:problem=text with extention lines	!	!	!LO:DY:b:rj
2.B/	2.F-X\	.	(>2aa/	2.dd\	gru-	f
.	.	.	4gg#/)	.	.	.
!	!LO:TX:t=P:problem=all\middle&colon; global	!	!	!LO:TX:t=P:problem=all\middle&colon; global	!	!
8B/L	8G#\L	.	(>8ff-X/L	(<8cc#\L	-zy	.
8G#/J	8F-\J	.	8dd/J)	8b\J)	.	.
=30	=30	=30	=30	=30	=30	=30
(>2Fn/	(<2D\	.	(>2cc-X/	(<2g#\	świa-	.
4D/)	4GG#\)	.	4b/)	4f-X\)	.	.
!	!	!	!	!LO:TX:t=P:problem=8\left	!	!
8.D/	8.AA\	.	8a/	8f-\	-ta	.
.	.	.	16r	16ryy	.	.
!	!	!	!	!LO:TX:t=P:problem=16\right	!	!
16D/	16BB\	.	16g#/	16f-\	nie	.
=31	=31	=31	=31	=31	=31	=31
(>1D	(<1EE	.	(>1ff-X	(<1g#	ru-	.
=32	=32	=32	=32	=32	=32	=32
2D/)	2EE\)	.	2ff#/)	2f#\)	.	.
4D/	4BB\	.	4ee/	4g#\	-nie	.
*v	*v	*	*	*	*	*
*	*	*v	*v	*	*
4r	.	4r	.	.
!!LO:PB:g=original
=||	=||	=||	=||	=||
*-	*-	*-	*-	*-
!!!system-decoration: {(g1)}
!!!AIN: 1 piano
!!!ENC: Marta Opryszak
!!!END: 2021-11-02
!!!EED: Jędrzej Mróz
!!!ESR: 2021-11-05
!!!RDF**kern: > = above
!!!RDF**kern: < = below
